resources/svg/find-replace-fill.svg

<svg fill="currentColor" viewBox="0 0 24 24" xmlns="http://www.w3.org/2000/svg"><path d="M18.031 16.6168L22.3137 20.8995L20.8995 22.3137L16.6168 18.031C15.0769 19.263 13.124 20 11 20C6.032 20 2 15.968 2 11C2 6.032 6.032 2 11 2C15.968 2 20 6.032 20 11C20 13.124 19.263 15.0769 18.031 16.6168ZM16.6589 9C15.8357 6.66906 13.6136 5 11 5C7.685 5 5 7.685 5 11H7C7 8.792 8.792 7 11 7C11.6912 7 12.3417 7.17563 12.9092 7.48467L12 9H16.6589ZM17 11H15C15 13.208 13.208 15 11 15C10.3088 15 9.65828 14.8244 9.0908 14.5153L10 13H7.53567H5.34109C6.16433 15.3309 8.38635 17 11 17C14.315 17 17 14.315 17 11Z"/></svg>

<svg xmlns="http://www.w3.org/2000/svg" viewBox="0 0 24 24" fill="currentColor">
    <g>
        <path fill="none" d="M0 0h24v24H0z"/>
        <path d="M18.031 16.617l4.283 4.282-1.415 1.415-4.282-4.283A8.96 8.96 0 0 1 11 20c-4.968 0-9-4.032-9-9s4.032-9 9-9 9 4.032 9 9a8.96 8.96 0 0 1-1.969 5.617zM16.659 9A6 6 0 0 0 11 5c-3.315 0-6 2.685-6 6h2a4.001 4.001 0 0 1 5.91-3.515L12 9h4.659zM17 11h-2a4.001 4.001 0 0 1-5.91 3.515L10 13H5.341A6 6 0 0 0 11 17c3.315 0 6-2.685 6-6z"/>
    </g>
</svg>
